app/img/logo.svg

<svg width="174" height="45" viewBox="0 0 174 45" fill="none" xmlns="http://www.w3.org/2000/svg">
<path d="M38.0753 5.7612C34.7379 2.21464 30.0026 0 24.7505 0C16.1217 0 8.88899 5.9772 6.95792 14.0202L9.42476 13.3363C9.53267 13.3065 9.6444 13.3596 9.6894 13.4623C9.7344 13.5649 9.69741 13.6836 9.60208 13.7424C7.63707 14.9602 5.62822 16.4138 3.93511 17.8557C-2.32521 23.2974 -1.2674 28.8247 8.19839 25.0602C14.268 22.7784 12.0495 20.7424 11.2632 19.8451C11.1999 19.773 11.1716 19.6879 11.1789 19.5921C11.1861 19.4963 11.2269 19.4166 11.3001 19.3547C11.8443 18.8956 13.1938 19.3647 13.9405 19.549C15.0368 19.8199 16.1316 20.1188 17.2207 20.421C17.3237 20.4497 17.4243 20.4321 17.5117 20.3703L23.4921 16.131C23.5798 16.0688 23.6297 15.9799 23.6366 15.8727C23.6438 15.7654 23.6057 15.6704 23.5272 15.5975C22.6505 14.7839 20.1604 12.6704 19.7112 12.2876C19.4881 12.0975 18.7292 11.464 17.9246 10.7778C17.1105 10.084 16.2494 9.33637 15.849 8.94176C15.7732 8.86696 15.7385 8.77193 15.7476 8.66584C15.7571 8.55974 15.8082 8.47235 15.896 8.41205C17.0133 7.64572 19.4767 9.00702 20.3842 9.43674C20.5798 9.52948 20.7759 9.62337 20.9715 9.71801C21.7368 10.0886 22.504 10.474 23.2736 10.8644C23.3803 10.9186 23.4978 10.9156 23.6015 10.8557L24.1625 10.5317C24.434 10.3748 24.784 10.4687 24.9408 10.7404C25.0452 10.9217 25.0384 11.1377 24.9415 11.3083C24.8935 11.3934 24.8832 11.4842 24.9114 11.5781C24.9396 11.6716 24.9983 11.7418 25.0857 11.7861C25.7473 12.1212 26.41 12.4532 27.0735 12.7757C27.2825 12.8772 27.6646 13.1272 27.9411 13.1989C28.0509 13.2275 28.1581 13.2043 28.2458 13.1321C29.9568 11.7319 33.3327 9.63863 35.5402 9.30928C36.767 9.12609 38.0082 9.25203 38.3846 9.99355C38.3903 10.005 38.396 10.0149 38.4029 10.0256C38.8563 10.7225 38.3446 11.8613 37.5727 12.8329C36.1839 14.5816 32.6848 16.4608 30.6176 17.2439C30.5116 17.284 30.4377 17.3653 30.4075 17.4748C30.3316 17.7503 30.3568 18.2064 30.34 18.4384C30.2874 19.1746 30.2432 19.915 30.2024 20.6561C30.197 20.7538 30.2283 20.8397 30.295 20.911C30.3618 20.9824 30.4457 21.0191 30.5437 21.0198C30.7397 21.0213 30.9299 21.1232 31.0348 21.3045C31.1915 21.5762 31.0977 21.9266 30.8262 22.0834L30.2653 22.4074C30.1616 22.4674 30.1002 22.5674 30.0937 22.6872C30.035 23.7695 29.9713 24.8465 29.8847 25.9052C29.8027 26.907 29.7493 29.7227 28.5272 30.3073C28.4311 30.3531 28.33 30.3539 28.2336 30.3089C28.1371 30.2638 28.0723 30.186 28.0456 30.0829C27.7645 28.9999 27.1876 25.643 27.0816 25.0629C26.9752 24.482 26.3913 21.2671 26.1256 20.1005C26.1015 19.9955 26.0382 19.9154 25.9421 19.868C25.846 19.8207 25.7435 19.8192 25.6462 19.8642L18.9866 22.928C18.8894 22.9727 18.8242 23.0509 18.7971 23.1547C18.5138 24.2496 18.2255 25.348 17.9117 26.4337C17.697 27.1772 17.5628 28.8209 16.8851 29.051C16.7097 29.1105 16.5198 28.9964 16.4523 28.8235C14.5491 23.9619 10.2873 29.5559 11.7871 31.1901C12.3888 31.8457 12.9982 32.5025 13.6125 33.1605C17.2623 37.0684 21.0866 41.0069 24.4843 44.8733C24.5548 44.9534 24.6433 44.9996 24.7501 45C24.8569 45.0004 24.9457 44.9546 25.0166 44.8748C30.2485 38.9781 39.8775 30.5989 42.421 22.2723C43.1295 19.9531 43.3564 16.8562 42.6845 14.5083C42.45 13.6893 37.9472 16.112 38.1794 15.583C38.4525 14.9609 47.1609 11.2442 46.9977 7.15265C46.9089 4.92808 43.5368 3.91331 38.0753 5.7612Z" fill="#FF715B"/>
<path fill-rule="evenodd" clip-rule="evenodd" d="M127.834 11.0752L127.905 11.1047C128.348 11.2998 128.672 11.6454 128.84 12.0508C129.01 12.4599 129.021 12.931 128.836 13.3681C128.42 14.4242 127.932 15.7019 127.397 17.099C125.448 22.198 122.889 28.8883 121.044 32.2099C120.904 32.5427 120.677 32.8141 120.398 33.0017C120.114 33.193 119.777 33.2996 119.424 33.2996C119.061 33.2996 118.721 33.1938 118.434 33.0055C118.148 32.8157 117.918 32.5427 117.778 32.2099C116.237 29.4359 114.914 25.8347 113.59 22.233C112.44 19.1013 111.289 15.9692 109.995 13.3802C109.819 12.9393 109.836 12.4629 110.007 12.05C110.177 11.6394 110.501 11.2885 110.939 11.0964L110.945 11.0949C111.398 10.9036 111.876 10.9187 112.291 11.0881C112.713 11.2613 113.07 11.5963 113.263 12.0364L119.424 26.9285C120.095 25.309 120.796 23.6662 121.501 22.0142C122.928 18.6724 124.37 15.2935 125.607 11.9955C125.79 11.5804 126.132 11.2635 126.533 11.0949C126.936 10.924 127.403 10.9021 127.834 11.0752ZM150.297 29.6955H139.056V23.8613H148.719C149.209 23.8613 149.649 23.6662 149.968 23.3494C150.286 23.0317 150.48 22.5916 150.48 22.0993C150.48 21.6191 150.283 21.1745 149.962 20.8531C149.645 20.537 149.208 20.3381 148.718 20.3381H139.055V14.5856H150.024C150.516 14.5856 150.957 14.392 151.274 14.0736C151.592 13.756 151.786 13.3151 151.786 12.8236C151.786 12.3321 151.592 11.8919 151.273 11.5736C150.955 11.2567 150.515 11.0616 150.025 11.0616H137.295C136.815 11.0616 136.37 11.259 136.049 11.5804C135.733 11.8965 135.533 12.3343 135.533 12.8236V31.4567C135.533 31.9453 135.732 32.3831 136.049 32.7C136.37 33.0213 136.815 33.2187 137.295 33.2187H150.297C150.789 33.2187 151.229 33.0236 151.546 32.7052C151.864 32.3869 152.059 31.9468 152.059 31.4567C152.059 30.966 151.865 30.5258 151.547 30.2067C151.229 29.8899 150.789 29.6955 150.297 29.6955ZM79.2403 30.0199C78.8932 29.759 78.447 29.6252 77.9857 29.6683C77.935 29.6675 77.7997 29.6585 77.6152 29.5647C77.3792 29.4437 77.076 29.1926 76.7697 28.6777C76.344 27.9222 75.8623 27.2189 75.339 26.5754C74.9548 26.102 74.5472 25.6619 74.1237 25.2573L74.3597 25.162C74.644 25.041 74.9155 24.9049 75.1726 24.762L75.1771 24.7605C76.2615 24.1389 77.0956 23.2964 77.6583 22.2672C78.2179 21.2448 78.5075 20.0447 78.5075 18.6994C78.5075 18.0974 78.4644 17.5167 78.3721 16.9639C78.2799 16.4118 78.1362 15.8878 77.935 15.3985C77.7619 14.9508 77.5516 14.5319 77.3044 14.1477C77.0571 13.7643 76.7659 13.4089 76.4317 13.0837C76.0112 12.664 75.5136 12.292 74.9586 11.9842C74.4156 11.684 73.8227 11.4481 73.1981 11.2938C72.3012 11.0631 71.6108 11.0624 71.4966 11.0624H63.418C62.9264 11.0624 62.4856 11.2567 62.1695 11.5751C61.8504 11.8935 61.656 12.3336 61.656 12.8236V31.484C61.656 31.9642 61.8534 32.4088 62.1748 32.7302C62.4909 33.0463 62.9287 33.2459 63.418 33.2459C63.9057 33.2459 64.3428 33.0471 64.6612 32.7287C64.9826 32.4073 65.18 31.9634 65.18 31.484V14.5856H71.4974C71.5443 14.5856 71.942 14.5962 72.4585 14.7406C72.7346 14.8177 73.0416 14.9327 73.3403 15.1028C73.58 15.2465 73.7895 15.4099 73.971 15.5929C74.1547 15.7766 74.3113 15.9816 74.4428 16.2062C74.6243 16.5207 74.7589 16.8845 74.8489 17.2943C74.9412 17.714 74.9858 18.1829 74.9858 18.6986C74.9858 19.4375 74.8648 20.0447 74.61 20.5347C74.3612 21.0142 73.9785 21.3953 73.4492 21.697C72.9599 21.9731 72.3595 22.1818 71.6501 22.3239C70.928 22.4676 70.0969 22.5402 69.1577 22.5402C68.7001 22.5402 68.2752 22.7104 67.9583 22.9962C67.6437 23.279 67.4335 23.676 67.3979 24.1336C67.3488 24.5865 67.4743 25.0153 67.7246 25.3533C67.9764 25.6936 68.3553 25.9417 68.8106 26.0286L68.8506 26.0369H68.8854C68.9013 26.0369 69.1115 26.105 69.5138 26.2963C69.7596 26.4135 70.0545 26.5739 70.3789 26.7871L70.382 26.7886C71.03 27.2038 71.635 27.7173 72.1916 28.3215C72.7565 28.934 73.2715 29.6411 73.7343 30.4328C74.1857 31.2178 74.6954 31.7713 75.1915 32.1653C75.6936 32.5638 76.1821 32.8013 76.5814 32.9488L76.5973 32.9533C76.9497 33.0667 77.2665 33.1287 77.5342 33.159C77.9766 33.2096 78.3011 33.1779 78.4372 33.159C78.9136 33.0887 79.3197 32.824 79.5881 32.4602C79.8558 32.0965 79.9882 31.6292 79.9178 31.1543C79.8483 30.6809 79.5942 30.2846 79.2403 30.0199ZM173.488 30.2347C173.17 29.9171 172.73 29.7227 172.239 29.7227H162.14V12.8236C162.14 12.3336 161.946 11.8935 161.628 11.5743C161.311 11.2567 160.871 11.0624 160.379 11.0624C159.899 11.0624 159.454 11.2598 159.133 11.5811C158.817 11.8972 158.617 12.3351 158.617 12.8244V31.4847C158.617 31.9717 158.816 32.4088 159.134 32.7279C159.457 33.0493 159.9 33.2467 160.379 33.2467H172.239C172.73 33.2467 173.171 33.0516 173.488 32.7347C173.806 32.4171 174 31.977 174 31.4847C174 30.9924 173.806 30.5516 173.488 30.2347ZM98.1305 11.3324C98.4065 11.504 98.6364 11.7528 98.7786 12.0545C99.7964 14.1354 100.809 16.2222 101.823 18.3098L101.823 18.311L101.824 18.3124C103.834 22.4532 105.845 26.5972 107.899 30.7051C108.101 31.1255 108.116 31.5936 107.973 32.0088C107.831 32.4232 107.53 32.7877 107.102 33.0017L107.064 33.0213C106.627 33.2399 106.15 33.2543 105.731 33.1121C105.312 32.9707 104.948 32.6705 104.735 32.2598C104.27 31.3316 103.819 30.3897 103.368 29.4494L103.368 29.449L103.368 29.4486C103.138 28.969 102.908 28.4898 102.677 28.0129C102.056 27.8481 101.417 27.7528 100.758 27.7294C100.038 27.7036 99.2898 27.7634 98.5154 27.9071C97.791 28.0379 97.0506 28.2375 96.2937 28.5067C95.5382 28.7752 94.7669 29.1147 93.9827 29.5269C93.0684 30.0109 92.2434 30.5342 91.5522 31.0151C90.1956 31.9589 89.3645 32.7302 89.3471 32.7476C89.1905 32.9041 88.9977 33.0282 88.792 33.1129C88.5795 33.1998 88.3534 33.2459 88.1379 33.2459C87.9587 33.2459 87.7658 33.2172 87.5753 33.1537C87.3991 33.0955 87.2282 33.0077 87.0754 32.889C86.7427 32.6395 86.5143 32.2833 86.4205 31.8946C86.3275 31.5089 86.3638 31.0892 86.5551 30.7066L95.6123 12.0387C95.7696 11.7422 95.998 11.4965 96.271 11.3271C96.5455 11.1577 96.8601 11.0624 97.1913 11.0624C97.5263 11.0624 97.853 11.1599 98.1305 11.3324ZM97.8575 24.4519C98.4806 24.3415 99.0947 24.2644 99.7034 24.2296C100.072 24.2084 100.438 24.2024 100.801 24.2137L97.1943 16.8391L92.6253 26.2812C93.4367 25.8638 94.2534 25.5076 95.0686 25.2142C96.0093 24.8754 96.9433 24.6221 97.8545 24.4534L97.8575 24.4519Z" fill="#2C2C2C"/>
</svg>

<svg width="174" height="45" fill="none" xmlns="http://www.w3.org/2000/svg"><path d="M38.075 5.761A18.243 18.243 0 0024.75 0C16.122 0 8.89 5.977 6.958 14.02l2.467-.684c.108-.03.22.024.264.126a.223.223 0 01-.087.28 47.98 47.98 0 00-5.667 4.114c-6.26 5.441-5.202 10.969 4.263 7.204 6.07-2.282 3.851-4.318 3.065-5.215a.332.332 0 01-.084-.253.333.333 0 01.121-.237c.544-.46 1.894.01 2.64.194 1.097.27 2.192.57 3.28.872a.334.334 0 00.292-.05l5.98-4.24a.333.333 0 00.145-.258.334.334 0 00-.11-.275c-.877-.814-3.367-2.928-3.816-3.31-.223-.19-.982-.824-1.786-1.51-.815-.694-1.676-1.442-2.076-1.836a.335.335 0 01-.101-.276.335.335 0 01.148-.254c1.117-.766 3.58.595 4.488 1.025a136.801 136.801 0 012.89 1.427.336.336 0 00.328-.008l.56-.324a.571.571 0 01.78.776.335.335 0 00-.03.27.333.333 0 00.174.208c.661.335 1.324.667 1.988.99.208.101.59.351.867.423.11.028.217.005.305-.067 1.71-1.4 5.087-3.493 7.294-3.823 1.227-.183 2.468-.057 2.845.685a.321.321 0 00.018.032c.453.697-.058 1.835-.83 2.807-1.39 1.749-4.888 3.628-6.955 4.41a.335.335 0 00-.21.232c-.076.275-.051.731-.068.963-.053.737-.097 1.477-.138 2.218a.334.334 0 00.093.255c.067.071.15.108.249.109a.571.571 0 01.282 1.063l-.56.324a.336.336 0 00-.172.28c-.059 1.082-.123 2.16-.21 3.218-.081 1.002-.135 3.818-1.357 4.402a.333.333 0 01-.293.002.334.334 0 01-.188-.226c-.281-1.083-.858-4.44-.964-5.02-.107-.581-.69-3.796-.956-4.962a.334.334 0 00-.184-.233.334.334 0 00-.296-.004l-6.66 3.064a.335.335 0 00-.189.227 120.76 120.76 0 01-.885 3.279c-.215.743-.35 2.387-1.027 2.617-.175.06-.365-.055-.433-.227-1.903-4.862-6.165.732-4.665 2.366.602.656 1.211 1.312 1.825 1.97 3.65 3.908 7.475 7.847 10.872 11.713a.345.345 0 00.532.002c5.233-5.897 14.861-14.276 17.405-22.603.709-2.319.935-5.416.264-7.764-.235-.819-4.738 1.604-4.506 1.075.273-.622 8.982-4.339 8.819-8.43-.09-2.225-3.461-3.24-8.923-1.392z" fill="#FF715B"/><path fill-rule="evenodd" clip-rule="evenodd" d="M127.834 11.075l.071.03c.443.195.767.54.935.946.17.409.181.88-.004 1.317-.416 1.056-.904 2.334-1.439 3.731-1.949 5.099-4.508 11.79-6.353 15.11a1.78 1.78 0 01-.646.793 1.74 1.74 0 01-.974.298c-.363 0-.703-.106-.99-.294a1.779 1.779 0 01-.656-.796c-1.541-2.774-2.864-6.375-4.188-9.977-1.15-3.132-2.301-6.264-3.595-8.853a1.785 1.785 0 01.944-2.284l.006-.001a1.742 1.742 0 011.346-.007c.422.173.779.508.972.948l6.161 14.893c.671-1.62 1.372-3.263 2.077-4.915 1.427-3.342 2.869-6.72 4.106-10.018.183-.416.525-.732.926-.901.403-.171.87-.193 1.301-.02zm22.463 18.62h-11.241v-5.834h9.663c.49 0 .93-.195 1.249-.512.318-.317.512-.757.512-1.25a1.766 1.766 0 00-1.762-1.76h-9.663v-5.753h10.969c.492 0 .933-.194 1.25-.512.318-.318.512-.759.512-1.25a1.753 1.753 0 00-1.761-1.762h-12.73a1.764 1.764 0 00-1.762 1.762v18.633a1.764 1.764 0 001.762 1.762h13.002a1.75 1.75 0 001.762-1.762c0-.491-.194-.931-.512-1.25a1.76 1.76 0 00-1.25-.512zm-71.057.325a1.81 1.81 0 00-1.254-.352.85.85 0 01-.37-.103c-.237-.121-.54-.372-.846-.887a15.025 15.025 0 00-1.431-2.103 14.199 14.199 0 00-1.215-1.318l.236-.095a8.77 8.77 0 00.813-.4l.004-.002c1.084-.621 1.919-1.464 2.481-2.493.56-1.022.85-2.222.85-3.568 0-.602-.044-1.182-.136-1.735a7.246 7.246 0 00-.437-1.565 6.92 6.92 0 00-.63-1.251 6.083 6.083 0 00-.873-1.064 6.65 6.65 0 00-1.473-1.1 7.228 7.228 0 00-1.76-.69 7.022 7.022 0 00-1.702-.232h-8.079a1.748 1.748 0 00-1.762 1.762v18.66a1.765 1.765 0 001.762 1.762 1.75 1.75 0 001.243-.517c.322-.322.519-.766.519-1.245V14.586h6.317c.047 0 .445.01.962.155.276.077.583.192.881.362.24.143.45.307.631.49.184.184.34.389.472.613.181.315.316.678.406 1.088.092.42.137.889.137 1.405 0 .738-.121 1.346-.376 1.836-.249.48-.632.86-1.16 1.162-.49.276-1.09.485-1.8.627-.722.144-1.553.216-2.492.216-.458 0-.883.17-1.2.456-.314.283-.525.68-.56 1.138a1.726 1.726 0 001.413 1.895l.04.008h.034c.016 0 .227.068.629.26a7.2 7.2 0 01.865.49l.003.002a9.258 9.258 0 011.81 1.532c.565.613 1.08 1.32 1.542 2.112.452.785.961 1.338 1.458 1.732.502.399.99.636 1.39.784l.015.004c.353.114.67.176.937.206.443.05.767.019.903 0 .477-.07.883-.335 1.151-.699.268-.364.4-.83.33-1.306a1.722 1.722 0 00-.678-1.134zm94.248.215a1.756 1.756 0 00-1.249-.512H162.14v-16.9c0-.49-.194-.93-.512-1.249a1.753 1.753 0 00-1.249-.512 1.764 1.764 0 00-1.762 1.762v18.66a1.767 1.767 0 001.762 1.762h11.86c.491 0 .932-.194 1.249-.511.318-.318.512-.758.512-1.25 0-.493-.194-.933-.512-1.25zM98.13 11.332c.276.172.506.42.649.723 1.017 2.08 2.03 4.167 3.044 6.255v.001l.001.001c2.01 4.141 4.021 8.285 6.075 12.393.202.42.217.889.074 1.304a1.74 1.74 0 01-.871.993l-.038.02a1.725 1.725 0 01-1.333.09 1.755 1.755 0 01-.996-.852c-.465-.928-.916-1.87-1.367-2.81v-.001c-.23-.48-.46-.96-.691-1.436a8.651 8.651 0 00-1.919-.284 10.27 10.27 0 00-2.243.178c-.724.13-1.464.33-2.221.6-.756.268-1.527.608-2.311 1.02a23.74 23.74 0 00-2.43 1.488c-1.357.944-2.188 1.715-2.206 1.733a1.747 1.747 0 01-1.21.498 1.79 1.79 0 01-.562-.092 1.668 1.668 0 01-.5-.265 1.763 1.763 0 01-.654-.994 1.737 1.737 0 01.134-1.188l9.057-18.668c.158-.297.386-.543.659-.712a1.746 1.746 0 011.86.005zm-.272 13.12c.623-.11 1.237-.188 1.845-.222a11.86 11.86 0 011.098-.016l-3.607-7.375-4.569 9.442a20.593 20.593 0 012.444-1.067 17.68 17.68 0 012.785-.76l.004-.002z" fill="#2C2C2C"/></svg>
